public/images/poses-lg/Butterﬂy.svg

<svg width="800" height="800" fill="none" xmlns="http://www.w3.org/2000/svg"><path d="M456.174 535.214c-5.376-1.697-11.626-3.042-18.442-4.127 0 0-32.152-5.582-30.595-35.226.283-5.661 0-7.696 3.207-15.219M387.389 760.419s-5.167 10.958-2.887 20.692M346.273 724.68c-1.42-14.298-3.594-39.005-6.266-50.733 0 0-1.29-4.062-2.241-8.401-3.148-13.991-6.578-49.475-5.269-68.463M408.741 761.02s5.167 10.953 2.887 20.691" stroke="#000" stroke-width="5" stroke-miterlimit="10"/><path d="M607.253 741.8c-4.716-11.792-33.017-18.866-58.959-21.224-25.942-2.359-66.034 0-80.185-9.434-14.151-9.432-16.509-42.451-16.509-42.451l-51.884-9.433-51.884 9.432s-2.358 33.018-16.508 42.451c-14.151 9.433-54.243 7.075-80.185 9.433-25.942 2.359-54.243 9.433-58.96 21.225-4.716 11.792 4.717 25.942 28.301 33.018 23.583 7.075 99.052 11.793 117.919 11.793 35.376 0 61.317-7.075 61.317-7.075s25.942 7.075 61.319 7.075c18.866 0 94.335-4.717 117.919-11.793 23.583-7.073 33.016-21.224 28.299-33.017Z" fill="#fff" stroke="#000" stroke-width="5" stroke-miterlimit="10"/><path d="M607.253 741.8c-4.716-11.792-33.017-18.866-58.959-21.224-25.942-2.359-66.034 0-80.185-9.434-14.151-9.432-16.509-42.451-16.509-42.451l-51.884-9.433-51.884 9.432s-2.358 33.018-16.508 42.451c-14.151 9.433-54.243 7.075-80.185 9.433-25.942 2.359-54.243 9.433-58.96 21.225-4.716 11.792 4.717 25.942 28.301 33.018 23.583 7.075 99.052 11.793 117.919 11.793 35.376 0 61.317-7.075 61.317-7.075s25.942 7.075 61.319 7.075c18.866 0 94.335-4.717 117.919-11.793 23.583-7.073 33.016-21.224 28.299-33.017Z" stroke="#000" stroke-width="5" stroke-miterlimit="10"/><path d="M543.577 734.727c-42.45-2.358-66.034 11.792-84.901 18.866-18.867 7.076-24.212 9.186-35.375 4.717-23.584-9.433-25.943 0-23.584 9.433 2.358 9.433 11.595 14.151 25.941 14.151h35.377c28.3 0 44.808 2.358 66.034 0" fill="#fff"/><path d="M543.577 734.727c-42.45-2.358-66.034 11.792-84.901 18.866-18.867 7.076-24.212 9.186-35.375 4.717-23.584-9.433-25.943 0-23.584 9.433 2.358 9.433 11.595 14.151 25.941 14.151h35.377c28.3 0 44.808 2.358 66.034 0" stroke="#000" stroke-width="5" stroke-miterlimit="10"/><path d="M543.577 734.727c-42.45-2.358-66.034 11.792-84.901 18.866-18.867 7.076-24.212 9.186-35.375 4.717-23.584-9.433-25.943 0-23.584 9.433 2.358 9.433 11.595 14.151 25.941 14.151h35.377c28.3 0 44.808 2.358 66.034 0" stroke="#000" stroke-width="5" stroke-miterlimit="10"/><path d="M255.595 734.727c42.452-2.358 66.035 11.792 84.902 18.866 18.867 7.076 25.141 11.028 35.376 4.717 19.127-11.792 25.942 0 23.583 9.433-2.357 9.433-11.596 14.151-25.942 14.151h-35.375c-28.301 0-44.809 2.358-66.035 0" fill="#fff"/><path d="M255.595 734.727c42.452-2.358 66.035 11.792 84.902 18.866 18.867 7.076 25.141 11.028 35.376 4.717 19.127-11.792 25.942 0 23.583 9.433-2.357 9.433-11.596 14.151-25.942 14.151h-35.375c-28.301 0-44.809 2.358-66.035 0" stroke="#000" stroke-width="5" stroke-miterlimit="10"/><path d="M255.595 734.727c42.452-2.358 66.035 11.792 84.902 18.866 18.867 7.076 25.141 11.028 35.376 4.717 19.127-11.792 25.942 0 23.583 9.433-2.357 9.433-11.596 14.151-25.942 14.151h-35.375c-28.301 0-44.809 2.358-66.035 0" stroke="#000" stroke-width="5" stroke-miterlimit="10"/><path d="M449.092 569.157c-8.707-25.394-4.379-47.297-4.379-47.297s-10.035-2.659-21.646-11.728c-11.607-9.07-8.709-39.665-8.709-39.665s-.602.122-14.749.122c-14.148 0-14.892-.122-14.892-.122s3.04 30.595-8.568 39.665c-11.611 9.068-21.643 11.728-21.643 11.728s4.327 21.903-4.379 47.297c0 0 8.127 53.797-2.757 99.505 0 0 22.855 9.069 52.24 9.069s52.238-9.069 52.238-9.069c-10.882-45.71-2.756-99.505-2.756-99.505Z" fill="#fff" stroke="#000" stroke-width="5" stroke-miterlimit="10"/><path d="M449.092 569.157c-8.707-25.394-4.379-47.297-4.379-47.297s-10.035-2.659-21.646-11.728c-11.607-9.07-8.709-39.665-8.709-39.665s-.602.122-14.749.122c-14.148 0-14.892-.122-14.892-.122s3.04 30.595-8.568 39.665c-11.611 9.068-21.643 11.728-21.643 11.728s4.327 21.903-4.379 47.297c0 0 8.127 53.797-2.757 99.505 0 0 22.855 9.069 52.24 9.069s52.238-9.069 52.238-9.069c-10.882-45.71-2.756-99.505-2.756-99.505Z" stroke="#000" stroke-width="5" stroke-miterlimit="10"/><path d="M317.486 664.072c2.743 19.038 23.433 83.294 23.433 83.294 3.04 12.183.849 22.418 8.077 36.048 7.229 13.63 8.717 11.879 10.099 10.026 1.382-1.851 3.72-37.349-4.883-47.517-2.83-3.349-2.865-4.045-3.769-6.195l-12.654-80.44 17.343-101.924c4.491-23.1 4.491-37.25 4.491-37.25-28.3 7.074-32.015 40.295-37.734 66.033-4.716 21.227-4.403 77.925-4.403 77.925Z" fill="#fff" stroke="#000" stroke-width="5" stroke-miterlimit="10"/><path d="M317.486 664.072c2.743 19.038 23.433 83.294 23.433 83.294 3.04 12.183.849 22.418 8.077 36.048 7.229 13.63 8.717 11.879 10.099 10.026 1.382-1.851 3.72-37.349-4.883-47.517-2.83-3.349-2.865-4.045-3.769-6.195l-12.654-80.44 17.343-101.924c4.491-23.1 4.491-37.25 4.491-37.25-28.3 7.074-32.015 40.295-37.734 66.033-4.716 21.227-4.403 77.925-4.403 77.925Z" stroke="#000" stroke-width="5" stroke-miterlimit="10"/><path d="M483.094 664.072c-2.742 19.038-23.432 83.294-23.432 83.294-3.04 12.183-.85 22.418-8.078 36.048-7.228 13.63-8.718 11.879-10.101 10.026-1.382-1.851-3.716-37.349 4.884-47.517 2.833-3.349 2.866-4.045 3.768-6.195l12.656-80.44-17.344-101.924c-4.489-23.1-4.489-37.25-4.489-37.25 28.299 7.074 32.013 40.295 37.734 66.033 4.716 21.227 4.402 77.925 4.402 77.925Z" fill="#fff" stroke="#000" stroke-width="5" stroke-miterlimit="10"/><path d="M483.094 664.072c-2.742 19.038-23.432 83.294-23.432 83.294-3.04 12.183-.85 22.418-8.078 36.048-7.228 13.63-8.718 11.879-10.101 10.026-1.382-1.851-3.716-37.349 4.884-47.517 2.833-3.349 2.866-4.045 3.768-6.195l12.656-80.44-17.344-101.924c-4.489-23.1-4.489-37.25-4.489-37.25 28.299 7.074 32.013 40.295 37.734 66.033 4.716 21.227 4.402 77.925 4.402 77.925Z" stroke="#000" stroke-width="5" stroke-miterlimit="10"/><path d="M380.996 404.773c-3.103-16.37-19.985-53.773-57.812-27.925-24.009 16.407-61.804 37.437-86.299 27.018-24.498-10.422-13.986 51.033 20.194 59.49 34.176 8.455 69.924-7.325 83.853-34.271 13.926-26.944 40.064-24.312 40.064-24.312Z" fill="#000" stroke="#000" stroke-width="5" stroke-miterlimit="10"/><path d="M384.147 461.818c-4.848-7.735-1.416-15.72-3.388-25.564-3.136-15.636 15.332-32.012 33.154-31.796 23.527.285 28.44 84.076 14.911 86.137-8.014 1.22-22.992-4.907-34.262-17.789-3.625-4.143-10.415-10.988-10.415-10.988Z" fill="#fff" stroke="#000" stroke-width="5" stroke-miterlimit="10"/><path d="M384.147 461.818c-4.848-7.735-1.416-15.72-3.388-25.564-3.136-15.636 15.332-32.012 33.154-31.796 23.527.285 28.44 84.076 14.911 86.137-8.014 1.22-22.992-4.907-34.262-17.789-3.625-4.143-10.415-10.988-10.415-10.988Z" stroke="#000" stroke-width="5" stroke-miterlimit="10"/><path d="M424.171 413.799c.353 14.723-9.286 41.822-27.963 37.814-20.998-4.505-11.983 7.532-10.181 11.37 1.8 3.84 12.217 10.78 10.196 11.982-2.023 1.204-31.127-8.138-34.883-29.224-3.758-21.087.921-32.363 11.634-39.385 10.712-7.019 33.509-9.157 44.779-2.865 11.274 6.292 6.418 10.308 6.418 10.308Z" fill="#000" stroke="#000" stroke-width="5" stroke-miterlimit="10"/><path d="M366.24 516.727c9.893 12.822 21.685 15.181 33.476 15.181 11.792 0 26.429-4.419 33.262-15.181M463.1 751.852c-2.032 13.636-.257 25.262 2.392 30.06M336.072 751.852c2.359 11.277-2.358 30.143-2.358 30.143" stroke="#000" stroke-width="5" stroke-miterlimit="10"/></svg>

<svg width="800" height="800" viewBox="0 0 800 800" fill="none" xmlns="http://www.w3.org/2000/svg">
<path d="M456.174 535.214C450.798 533.517 444.548 532.172 437.732 531.087C437.732 531.087 405.58 525.505 407.137 495.861C407.42 490.2 407.137 488.165 410.344 480.642" stroke="black" stroke-width="5" stroke-miterlimit="10"/>
<path d="M387.389 760.419C387.389 760.419 382.222 771.377 384.502 781.111" stroke="black" stroke-width="5" stroke-miterlimit="10"/>
<path d="M346.273 724.68C344.853 710.382 342.679 685.675 340.007 673.947C340.007 673.947 338.717 669.885 337.766 665.546C334.618 651.555 331.188 616.071 332.497 597.083" stroke="black" stroke-width="5" stroke-miterlimit="10"/>
<path d="M408.741 761.02C408.741 761.02 413.908 771.973 411.628 781.711" stroke="black" stroke-width="5" stroke-miterlimit="10"/>
<path d="M607.253 741.8C602.537 730.008 574.236 722.934 548.294 720.576C522.352 718.217 482.26 720.576 468.109 711.142C453.958 701.71 451.6 668.691 451.6 668.691L399.716 659.258L347.832 668.69C347.832 668.69 345.474 701.708 331.324 711.141C317.173 720.574 277.081 718.216 251.139 720.574C225.197 722.933 196.896 730.007 192.179 741.799C187.463 753.591 196.896 767.741 220.48 774.817C244.063 781.892 319.532 786.61 338.399 786.61C373.775 786.61 399.716 779.535 399.716 779.535C399.716 779.535 425.658 786.61 461.035 786.61C479.901 786.61 555.37 781.893 578.954 774.817C602.537 767.744 611.97 753.593 607.253 741.8Z" fill="white" stroke="black" stroke-width="5" stroke-miterlimit="10"/>
<path d="M607.253 741.8C602.537 730.008 574.236 722.934 548.294 720.576C522.352 718.217 482.26 720.576 468.109 711.142C453.958 701.71 451.6 668.691 451.6 668.691L399.716 659.258L347.832 668.69C347.832 668.69 345.474 701.708 331.324 711.141C317.173 720.574 277.081 718.216 251.139 720.574C225.197 722.933 196.896 730.007 192.179 741.799C187.463 753.591 196.896 767.741 220.48 774.817C244.063 781.892 319.532 786.61 338.399 786.61C373.775 786.61 399.716 779.535 399.716 779.535C399.716 779.535 425.658 786.61 461.035 786.61C479.901 786.61 555.37 781.893 578.954 774.817C602.537 767.744 611.97 753.593 607.253 741.8Z" stroke="black" stroke-width="5" stroke-miterlimit="10"/>
<path d="M543.577 734.727C501.127 732.369 477.543 746.519 458.676 753.593C439.809 760.669 434.464 762.779 423.301 758.31C399.717 748.877 397.358 758.31 399.717 767.743C402.075 777.176 411.312 781.894 425.658 781.894H461.035C489.335 781.894 505.843 784.252 527.069 781.894" fill="white"/>
<path d="M543.577 734.727C501.127 732.369 477.543 746.519 458.676 753.593C439.809 760.669 434.464 762.779 423.301 758.31C399.717 748.877 397.358 758.31 399.717 767.743C402.075 777.176 411.312 781.894 425.658 781.894H461.035C489.335 781.894 505.843 784.252 527.069 781.894" stroke="black" stroke-width="5" stroke-miterlimit="10"/>
<path d="M543.577 734.727C501.127 732.369 477.543 746.519 458.676 753.593C439.809 760.669 434.464 762.779 423.301 758.31C399.717 748.877 397.358 758.31 399.717 767.743C402.075 777.176 411.312 781.894 425.658 781.894H461.035C489.335 781.894 505.843 784.252 527.069 781.894" stroke="black" stroke-width="5" stroke-miterlimit="10"/>
<path d="M255.595 734.727C298.047 732.369 321.63 746.519 340.497 753.593C359.364 760.669 365.638 764.621 375.873 758.31C395 746.518 401.815 758.31 399.456 767.743C397.099 777.176 387.86 781.894 373.514 781.894H338.139C309.838 781.894 293.33 784.252 272.104 781.894" fill="white"/>
<path d="M255.595 734.727C298.047 732.369 321.63 746.519 340.497 753.593C359.364 760.669 365.638 764.621 375.873 758.31C395 746.518 401.815 758.31 399.456 767.743C397.099 777.176 387.86 781.894 373.514 781.894H338.139C309.838 781.894 293.33 784.252 272.104 781.894" stroke="black" stroke-width="5" stroke-miterlimit="10"/>
<path d="M255.595 734.727C298.047 732.369 321.63 746.519 340.497 753.593C359.364 760.669 365.638 764.621 375.873 758.31C395 746.518 401.815 758.31 399.456 767.743C397.099 777.176 387.86 781.894 373.514 781.894H338.139C309.838 781.894 293.33 784.252 272.104 781.894" stroke="black" stroke-width="5" stroke-miterlimit="10"/>
<path d="M449.092 569.157C440.385 543.763 444.713 521.86 444.713 521.86C444.713 521.86 434.678 519.201 423.067 510.132C411.46 501.062 414.358 470.467 414.358 470.467C414.358 470.467 413.756 470.589 399.609 470.589C385.461 470.589 384.717 470.467 384.717 470.467C384.717 470.467 387.757 501.062 376.149 510.132C364.538 519.2 354.506 521.86 354.506 521.86C354.506 521.86 358.833 543.763 350.127 569.157C350.127 569.157 358.254 622.954 347.37 668.662C347.37 668.662 370.225 677.731 399.61 677.731C428.995 677.731 451.848 668.662 451.848 668.662C440.966 622.952 449.092 569.157 449.092 569.157Z" fill="white" stroke="black" stroke-width="5" stroke-miterlimit="10"/>
<path d="M449.092 569.157C440.385 543.763 444.713 521.86 444.713 521.86C444.713 521.86 434.678 519.201 423.067 510.132C411.46 501.062 414.358 470.467 414.358 470.467C414.358 470.467 413.756 470.589 399.609 470.589C385.461 470.589 384.717 470.467 384.717 470.467C384.717 470.467 387.757 501.062 376.149 510.132C364.538 519.2 354.506 521.86 354.506 521.86C354.506 521.86 358.833 543.763 350.127 569.157C350.127 569.157 358.254 622.954 347.37 668.662C347.37 668.662 370.225 677.731 399.61 677.731C428.995 677.731 451.848 668.662 451.848 668.662C440.966 622.952 449.092 569.157 449.092 569.157Z" stroke="black" stroke-width="5" stroke-miterlimit="10"/>
<path d="M317.486 664.072C320.229 683.11 340.919 747.366 340.919 747.366C343.959 759.549 341.768 769.784 348.996 783.414C356.225 797.044 357.713 795.293 359.095 793.44C360.477 791.589 362.815 756.091 354.212 745.923C351.382 742.574 351.347 741.878 350.443 739.728L337.789 659.288L355.132 557.364C359.623 534.264 359.623 520.114 359.623 520.114C331.323 527.188 327.608 560.409 321.889 586.147C317.173 607.374 317.486 664.072 317.486 664.072Z" fill="white" stroke="black" stroke-width="5" stroke-miterlimit="10"/>
<path d="M317.486 664.072C320.229 683.11 340.919 747.366 340.919 747.366C343.959 759.549 341.768 769.784 348.996 783.414C356.225 797.044 357.713 795.293 359.095 793.44C360.477 791.589 362.815 756.091 354.212 745.923C351.382 742.574 351.347 741.878 350.443 739.728L337.789 659.288L355.132 557.364C359.623 534.264 359.623 520.114 359.623 520.114C331.323 527.188 327.608 560.409 321.889 586.147C317.173 607.374 317.486 664.072 317.486 664.072Z" stroke="black" stroke-width="5" stroke-miterlimit="10"/>
<path d="M483.094 664.072C480.352 683.11 459.662 747.366 459.662 747.366C456.622 759.549 458.812 769.784 451.584 783.414C444.356 797.044 442.866 795.293 441.483 793.44C440.101 791.589 437.767 756.091 446.367 745.923C449.2 742.574 449.233 741.878 450.135 739.728L462.791 659.288L445.447 557.364C440.958 534.264 440.958 520.114 440.958 520.114C469.257 527.188 472.971 560.409 478.692 586.147C483.408 607.374 483.094 664.072 483.094 664.072Z" fill="white" stroke="black" stroke-width="5" stroke-miterlimit="10"/>
<path d="M483.094 664.072C480.352 683.11 459.662 747.366 459.662 747.366C456.622 759.549 458.812 769.784 451.584 783.414C444.356 797.044 442.866 795.293 441.483 793.44C440.101 791.589 437.767 756.091 446.367 745.923C449.2 742.574 449.233 741.878 450.135 739.728L462.791 659.288L445.447 557.364C440.958 534.264 440.958 520.114 440.958 520.114C469.257 527.188 472.971 560.409 478.692 586.147C483.408 607.374 483.094 664.072 483.094 664.072Z" stroke="black" stroke-width="5" stroke-miterlimit="10"/>
<path d="M380.996 404.773C377.893 388.403 361.011 351 323.184 376.848C299.175 393.255 261.38 414.285 236.885 403.866C212.387 393.444 222.899 454.899 257.079 463.356C291.255 471.811 327.003 456.031 340.932 429.085C354.858 402.141 380.996 404.773 380.996 404.773Z" fill="black" stroke="black" stroke-width="5" stroke-miterlimit="10"/>
<path d="M384.147 461.818C379.299 454.083 382.731 446.098 380.759 436.254C377.623 420.618 396.091 404.242 413.913 404.458C437.44 404.743 442.353 488.534 428.824 490.595C420.81 491.815 405.832 485.688 394.562 472.806C390.937 468.663 384.147 461.818 384.147 461.818Z" fill="white" stroke="black" stroke-width="5" stroke-miterlimit="10"/>
<path d="M384.147 461.818C379.299 454.083 382.731 446.098 380.759 436.254C377.623 420.618 396.091 404.242 413.913 404.458C437.44 404.743 442.353 488.534 428.824 490.595C420.81 491.815 405.832 485.688 394.562 472.806C390.937 468.663 384.147 461.818 384.147 461.818Z" stroke="black" stroke-width="5" stroke-miterlimit="10"/>
<path d="M424.171 413.799C424.524 428.522 414.885 455.621 396.208 451.613C375.21 447.108 384.225 459.145 386.027 462.983C387.827 466.823 398.244 473.763 396.223 474.965C394.2 476.169 365.096 466.827 361.34 445.741C357.582 424.654 362.261 413.378 372.974 406.356C383.686 399.337 406.483 397.199 417.753 403.491C429.027 409.783 424.171 413.799 424.171 413.799Z" fill="black" stroke="black" stroke-width="5" stroke-miterlimit="10"/>
<path d="M366.24 516.727C376.133 529.549 387.925 531.908 399.716 531.908C411.508 531.908 426.145 527.489 432.978 516.727" stroke="black" stroke-width="5" stroke-miterlimit="10"/>
<path d="M463.1 751.852C461.068 765.488 462.843 777.114 465.492 781.912" stroke="black" stroke-width="5" stroke-miterlimit="10"/>
<path d="M336.072 751.852C338.431 763.129 333.714 781.995 333.714 781.995" stroke="black" stroke-width="5" stroke-miterlimit="10"/>
</svg>
